modules/hawcons-stroke/icons/icon-43-note-remove.svg

<?xml version="1.0" encoding="UTF-8" standalone="no"?>
<svg width="32px" height="32px" viewBox="0 0 32 32" version="1.1" xmlns="http://www.w3.org/2000/svg" xmlns:xlink="http://www.w3.org/1999/xlink" xmlns:sketch="http://www.bohemiancoding.com/sketch/ns">
    <!-- Generator: Sketch 3.0.3 (7891) - http://www.bohemiancoding.com/sketch -->
    <title>icon 43 note remove</title>
    <desc>Created with Sketch.</desc>
    <defs></defs>
    <g id="Page-1" stroke="none" stroke-width="1" fill="none" fill-rule="evenodd" sketch:type="MSPage">
        <g id="icon-43-note-remove" sketch:type="MSArtboardGroup" fill="#929292">
            <path d="M20.5997073,27 L6.99874609,27 C6.44715386,27 6,26.5613852 6,26.0012539 L6,11 L6,11 L27,11 L27,19.2070325 C26.5231682,19.0721672 26.0200119,19 25.5,19 C22.4624337,19 20,21.4624337 20,24.5 C20,25.4002236 20.2162787,26.2499326 20.5997098,27.0000006 L20.5997073,27 L20.5997073,27 Z M28,19.5997073 L28,7.00086422 C28,5.90162726 27.1041826,5 25.9991358,5 L7.00086422,5 C5.90162726,5 5,5.89581743 5,7.00086422 L5,25.9991358 C5,27.0983727 5.89581743,28 7.00086422,28 L21.257162,28 C22.2659536,29.2215034 23.7920629,30 25.5,30 C28.5375663,30 31,27.5375663 31,24.5 C31,22.3626574 29.7808383,20.5100654 28.0000006,19.5997098 L28,19.5997073 L28,19.5997073 Z M6,10 L6,6.99874609 C6,6.44715386 6.43861485,6 6.99874609,6 L26.0012539,6 C26.5528461,6 27,6.43861485 27,6.99874609 L27,10 L6,10 L6,10 Z M25.5,29 C27.9852815,29 30,26.9852815 30,24.5 C30,22.0147185 27.9852815,20 25.5,20 C23.0147185,20 21,22.0147185 21,24.5 C21,26.9852815 23.0147185,29 25.5,29 L25.5,29 L25.5,29 Z M22,24 L22,25 L29,25 L29,24 L22,24 L22,24 Z" id="note-remove" sketch:type="MSShapeGroup"></path>
        </g>
    </g>
</svg>

<svg width="32" height="32" xmlns="http://www.w3.org/2000/svg"><path d="M20.6 27H6.999A.993.993 0 0 1 6 26.001V11h21v8.207A5.5 5.5 0 0 0 20.6 27zm7.4-7.4V7c0-1.098-.896-2-2-2H7c-1.098 0-2 .896-2 2v19c0 1.098.896 2 2 2h14.257A5.5 5.5 0 1 0 28 19.6zM6 10V6.999C6 6.447 6.439 6 6.999 6H26c.552 0 .999.439.999.999V10H6zm19.5 19a4.5 4.5 0 1 0 0-9 4.5 4.5 0 0 0 0 9zM22 24v1h7v-1h-7z" fill="#929292" fill-rule="evenodd"/></svg>
